src/22/panel/rocketchat-tray-dot.svg

<svg xmlns="http://www.w3.org/2000/svg" width="22" height="22" version="1.1">
 <defs>
  <style id="current-color-scheme" type="text/css">
   .ColorScheme-Text { color:#dfdfdf; } .ColorScheme-Highlight { color:#4285f4; }
  </style>
 </defs>
 <path style="fill:currentColor" class="ColorScheme-Text" d="M 3 3 C 3.625289 3.9191748 4.0814606 5.6621576 4.3378906 7.6816406 C 3.4662891 8.6649316 3.0008959 9.819243 3 11 C 3.00265 12.214174 3.4964048 13.399175 4.4160156 14.398438 C 4.1963716 16.38357 3.740364 18.093055 3 19 C 5.101032 19 7.0025374 18.106296 8.3808594 16.662109 C 9.2226815 16.883472 10.107941 16.997678 11 17 C 15.418278 17 19 14.313708 19 11 C 19 7.686291 15.418278 5 11 5 C 10.107941 5.0023218 9.2226815 5.1165275 8.3808594 5.3378906 C 7.0025374 3.8937041 5.101032 3 3 3 z M 11 7 A 6 4 0 0 1 11.652344 7.0253906 C 11.656844 7.0257316 11.661546 7.0250426 11.666016 7.0253906 A 6 4 0 0 1 11.722656 7.03125 A 6 4 0 0 1 16.898438 10.279297 C 16.901537 10.290467 16.907136 10.30131 16.910156 10.3125 A 6 4 0 0 1 17 11 A 6 4 0 0 1 16.916016 11.642578 C 16.909216 11.669978 16.904174 11.697299 16.896484 11.724609 A 6 4 0 0 1 16.625 12.375 A 6 4 0 0 1 12.324219 14.896484 C 12.320219 14.89712 12.31652 14.897737 12.3125 14.898438 A 6 4 0 0 1 12.28125 14.902344 A 6 4 0 0 1 11.798828 14.958984 C 11.720998 14.966284 11.643292 14.973316 11.564453 14.978516 A 6 4 0 0 1 11.015625 15 L 11.005859 15 A 6 4 0 0 1 11 15 A 6 4 0 0 1 8.4160156 14.603516 L 7.7480469 14.427734 L 6.9335938 15.28125 C 6.7192646 15.505821 6.4358454 15.623794 6.1933594 15.808594 C 6.2543494 15.405874 6.3577169 15.04013 6.4042969 14.619141 L 6.5039062 13.712891 L 6.2578125 13.445312 A 6 4 0 0 1 5.0605469 11.533203 C 5.0556069 11.509793 5.0530971 11.486271 5.0488281 11.462891 A 6 4 0 0 1 5 11 A 6 4 0 0 1 5.046875 10.523438 C 5.050385 10.504528 5.0565949 10.485727 5.0605469 10.466797 A 6 4 0 0 1 11 7 z M 8 10 C 7.4477153 10 7 10.447715 7 11 C 7 11.552285 7.4477153 12 8 12 C 8.5522847 12 9 11.552285 9 11 C 9 10.447715 8.5522847 10 8 10 z M 11 10 C 10.447715 10 10 10.447715 10 11 C 10 11.552285 10.447715 12 11 12 C 11.552285 12 12 11.552285 12 11 C 12 10.447715 11.552285 10 11 10 z M 14 10 C 13.447715 10 13 10.447715 13 11 C 13 11.552285 13.447715 12 14 12 C 14.552285 12 15 11.552285 15 11 C 15 10.447715 14.552285 10 14 10 z M 19 16 A 2 2 0 0 0 17 18 A 2 2 0 0 0 19 20 A 2 2 0 0 0 21 18 A 2 2 0 0 0 19 16 z"/>
</svg>

<svg xmlns="http://www.w3.org/2000/svg" width="22" height="22"><defs><style id="current-color-scheme" type="text/css">.ColorScheme-Text{color:#dfdfdf;}.ColorScheme-Highlight{color:#5294e2;}</style></defs><defs><style id="current-color-scheme" type="text/css"></style></defs><path d="M3 3c.625.92 1.081 2.662 1.338 4.682C3.466 8.665 3 9.819 3 11c.003 1.214.496 2.4 1.416 3.398C4.196 16.384 3.74 18.093 3 19c2.101 0 4.003-.894 5.38-2.338.843.221 1.728.336 2.62.338 4.418 0 8-2.686 8-6s-3.582-6-8-6c-.892.002-1.777.117-2.62.338C7.004 3.894 5.102 3 3 3zm8 4a6 4 0 0 1 .652.025h.014a6 4 0 0 1 .057.006 6 4 0 0 1 5.175 3.248c.004.011.01.022.012.034A6 4 0 0 1 17 11a6 4 0 0 1-.084.643c-.007.027-.012.054-.02.082a6 4 0 0 1-.271.65 6 4 0 0 1-4.3 2.521.774.774 0 0 0-.012.002 6 4 0 0 1-.032.004 6 4 0 0 1-.482.057 8.471 8.471 0 0 1-.235.02 6 4 0 0 1-.548.021h-.01A6 4 0 0 1 11 15a6 4 0 0 1-2.584-.396l-.668-.176-.814.853c-.215.225-.498.343-.74.528.06-.403.164-.769.21-1.19l.1-.906-.246-.268a6 4 0 0 1-1.197-1.912c-.005-.023-.008-.047-.012-.07A6 4 0 0 1 5 11a6 4 0 0 1 .047-.477c.003-.018.01-.037.014-.056A6 4 0 0 1 11 7zm-3 3a1 1 0 1 0 0 2 1 1 0 0 0 0-2zm3 0a1 1 0 1 0 0 2 1 1 0 0 0 0-2zm3 0a1 1 0 1 0 0 2 1 1 0 0 0 0-2zm5 6a2 2 0 0 0-2 2 2 2 0 0 0 2 2 2 2 0 0 0 2-2 2 2 0 0 0-2-2z" fill="currentColor" class="ColorScheme-Text"/></svg>
